img/button__arrow.svg

<svg width="18" height="15" viewBox="0 0 18 15" fill="none" xmlns="http://www.w3.org/2000/svg">
<path d="M1.0118 8.91619L0.983707 8.91003L13.0285 8.91003L9.24205 12.7173C9.05663 12.9032 8.95493 13.155 8.95493 13.4193C8.95493 13.6836 9.05663 13.9336 9.24205 14.1199L9.83122 14.7113C10.0165 14.8972 10.2634 15 10.5266 15C10.79 15 11.0371 14.898 11.2223 14.7121L17.713 8.20057C17.899 8.01396 18.0007 7.76538 18 7.50095C18.0007 7.23506 17.899 6.98634 17.713 6.80002L11.2223 0.287923C11.0371 0.10219 10.7902 9.53674e-07 10.5266 9.53674e-07C10.2634 9.53674e-07 10.0165 0.102337 9.83122 0.287923L9.24205 0.879331C9.05663 1.06492 8.95493 1.31276 8.95493 1.57704C8.95493 1.84118 9.05663 2.07595 9.24205 2.26168L13.0712 6.09027L0.998341 6.09027C0.455853 6.09027 0 6.55937 0 7.10335V7.93981C0 8.48379 0.469316 8.91619 1.0118 8.91619Z" fill="white"/>
</svg>

<svg width="18" height="15" fill="none" xmlns="http://www.w3.org/2000/svg"><path d="M1.012 8.916L.984 8.91h12.044l-3.786 3.807a.99.99 0 00-.287.702c0 .265.102.515.287.7l.59.592a.975.975 0 00.695.289c.263 0 .51-.102.695-.288l6.491-6.511A.98.98 0 0018 7.5a.98.98 0 00-.287-.701L11.223.288A.975.975 0 0010.526 0a.976.976 0 00-.696.288l-.589.591a.98.98 0 00-.287.698.95.95 0 00.287.685l3.83 3.828H.997C.456 6.09 0 6.56 0 7.103v.837c0 .544.47.976 1.012.976z" fill="#fff"/></svg>
